src/images/svg/be-square/world-exposure.svg

<svg width="64" height="64" viewBox="0 0 64 64" fill="none" xmlns="http://www.w3.org/2000/svg">
<g clip-path="url(#clip0)">
<path d="M49.2374 50.8911C49.0643 50.891 48.8952 50.839 48.752 50.7417C48.6088 50.6444 48.498 50.5064 48.4341 50.3456C48.3702 50.1847 48.3561 50.0083 48.3935 49.8393C48.4309 49.6703 48.5182 49.5164 48.6441 49.3976C49.1967 48.8787 49.7615 48.2828 50.3228 47.635C50.3975 47.549 50.4884 47.4785 50.5903 47.4276C50.6922 47.3767 50.8032 47.3464 50.9168 47.3383C51.0304 47.3303 51.1445 47.3447 51.2526 47.3808C51.3607 47.4169 51.4606 47.4739 51.5466 47.5485C51.6326 47.6232 51.7031 47.7141 51.754 47.816C51.8049 47.9179 51.8353 48.0289 51.8433 48.1425C51.8513 48.2561 51.8369 48.3702 51.8008 48.4783C51.7648 48.5864 51.7078 48.6863 51.6331 48.7723C51.0653 49.4315 50.4646 50.0616 49.8333 50.6602C49.6717 50.811 49.4583 50.8937 49.2374 50.8911Z" fill="#FF444F"/>
<path d="M36.4279 57.4131C36.2111 57.4139 36.002 57.3333 35.8418 57.1872C35.6816 57.0411 35.5821 56.8402 35.5631 56.6243C35.4822 55.7342 35.0714 54.9066 34.4115 54.3039C33.7515 53.7012 32.8901 53.3671 31.9964 53.3671C31.1026 53.3671 30.2412 53.7012 29.5813 54.3039C28.9213 54.9066 28.5106 55.7342 28.4297 56.6243C28.4195 56.7441 28.3844 56.8605 28.3268 56.9661C28.2691 57.0716 28.19 57.1639 28.0946 57.2372C27.9992 57.3104 27.8896 57.363 27.7728 57.3915C27.6559 57.42 27.5344 57.4238 27.416 57.4027C22.2398 56.4643 17.4735 53.9681 13.7544 50.2477C10.0352 46.5273 7.54053 41.7601 6.60392 36.5836C6.5828 36.4652 6.58661 36.3437 6.61511 36.2269C6.6436 36.1101 6.69615 36.0004 6.7694 35.9051C6.84265 35.8097 6.93499 35.7306 7.04052 35.6729C7.14606 35.6152 7.26246 35.5802 7.3823 35.57C8.27426 35.4945 9.10491 35.0853 9.70837 34.4241C10.3118 33.7629 10.6437 32.8985 10.6376 32.0033C10.6337 31.1106 10.2981 30.2512 9.69606 29.5921C9.09398 28.933 8.26841 28.5211 7.3797 28.4366C7.25986 28.4265 7.14346 28.3914 7.03793 28.3337C6.9324 28.276 6.84006 28.197 6.76681 28.1016C6.69356 28.0062 6.64101 27.8966 6.61251 27.7797C6.58402 27.6629 6.58021 27.5414 6.60133 27.423C7.53851 22.2467 10.0338 17.4799 13.7534 13.7601C17.4731 10.0403 22.2397 7.54483 27.416 6.60743C27.5344 6.58631 27.6559 6.59012 27.7728 6.61862C27.8896 6.64711 27.9992 6.69966 28.0946 6.77291C28.19 6.84616 28.2691 6.9385 28.3268 7.04403C28.3844 7.14957 28.4195 7.26597 28.4297 7.38581C28.5106 8.27586 28.9213 9.10351 29.5813 9.70619C30.2412 10.3089 31.1026 10.643 31.9964 10.643C32.8901 10.643 33.7515 10.3089 34.4115 9.70619C35.0714 9.10351 35.4822 8.27586 35.5631 7.38581C35.5732 7.26597 35.6083 7.14957 35.6659 7.04403C35.7236 6.9385 35.8027 6.84616 35.8981 6.77291C35.9935 6.69966 36.1031 6.64711 36.2199 6.61862C36.3368 6.59012 36.4583 6.58631 36.5767 6.60743C41.7537 7.54403 46.5214 10.0391 50.2419 13.759C53.9623 17.4789 56.4582 22.2461 57.3957 27.423C57.4168 27.5414 57.413 27.6629 57.3845 27.7797C57.356 27.8966 57.3035 28.0062 57.2302 28.1016C57.157 28.197 57.0646 28.276 56.9591 28.3337C56.8536 28.3914 56.7372 28.4265 56.6173 28.4366C55.7291 28.5217 54.9041 28.9338 54.3026 29.5929C53.7011 30.252 53.3658 31.111 53.362 32.0033C53.356 32.8989 53.6882 33.7637 54.2922 34.4249C54.8962 35.0862 55.7275 35.4951 56.6199 35.57C56.7397 35.5802 56.856 35.6152 56.9615 35.6729C57.0669 35.7305 57.1592 35.8095 57.2324 35.9048C57.3057 36 57.3583 36.1096 57.3868 36.2263C57.4154 36.343 57.4193 36.4644 57.3983 36.5828C56.9729 38.9561 56.216 41.2579 55.1497 43.4204C55.0485 43.6268 54.8695 43.7846 54.652 43.8591C54.4345 43.9335 54.1963 43.9185 53.9899 43.8174C53.7834 43.7162 53.6256 43.5372 53.5512 43.3197C53.4767 43.1022 53.4917 42.864 53.5929 42.6576C54.4593 40.8983 55.1068 39.0394 55.5207 37.1225C54.4009 36.8116 53.4138 36.1424 52.7105 35.2172C52.0072 34.2921 51.6264 33.162 51.6264 31.9999C51.6264 30.8377 52.0072 29.7076 52.7105 28.7825C53.4138 27.8573 54.4009 27.1881 55.5207 26.8773C54.5352 22.3716 52.2781 18.2432 49.017 14.9817C45.756 11.7202 41.6279 9.4625 37.1224 8.4764C36.8115 9.59618 36.1423 10.5832 35.2172 11.2865C34.292 11.9899 33.1619 12.3706 31.9998 12.3706C30.8377 12.3706 29.7076 11.9899 28.7824 11.2865C27.8573 10.5832 27.1881 9.59618 26.8772 8.4764C22.3706 9.46217 18.2415 11.7201 14.9797 14.9823C11.718 18.2445 9.46062 22.374 8.47549 26.8807C9.59526 27.1916 10.5823 27.8608 11.2856 28.7859C11.9889 29.7111 12.3697 30.8412 12.3697 32.0033C12.3697 33.1654 11.9889 34.2956 11.2856 35.2207C10.5823 36.1458 9.59526 36.8151 8.47549 37.1259C9.46074 41.6329 11.7184 45.7625 14.9805 49.0247C18.2425 52.2869 22.3721 54.5448 26.8789 55.5302C27.1895 54.4101 27.8587 53.4226 28.784 52.719C29.7092 52.0154 30.8396 51.6344 32.002 51.6344C33.1644 51.6344 34.2947 52.0154 35.22 52.719C36.1453 53.4226 36.8144 54.4101 37.125 55.5302C39.5055 55.0204 41.7928 54.1452 43.9055 52.9357C44.0043 52.8761 44.1139 52.8369 44.228 52.8203C44.3421 52.8037 44.4584 52.8102 44.57 52.8392C44.6815 52.8682 44.7862 52.9192 44.8778 52.9893C44.9693 53.0593 45.046 53.147 45.1032 53.2471C45.1604 53.3472 45.197 53.4577 45.2109 53.5722C45.2247 53.6867 45.2156 53.8027 45.1839 53.9136C45.1523 54.0245 45.0988 54.1279 45.0266 54.2178C44.9544 54.3077 44.8649 54.3822 44.7635 54.4371C42.2272 55.89 39.4586 56.8928 36.5801 57.401C36.5298 57.4094 36.4789 57.4134 36.4279 57.4131Z" fill="#FF444F"/>
<path d="M31.9986 12.3733C30.6698 12.3814 29.3869 11.8877 28.4063 10.991C27.4256 10.0942 26.8195 8.86038 26.7091 7.53613C26.689 7.37607 26.6791 7.21487 26.6797 7.05354C26.6797 5.64287 27.2401 4.28999 28.2376 3.29249C29.2351 2.295 30.588 1.73462 31.9986 1.73462C33.4093 1.73462 34.7622 2.295 35.7597 3.29249C36.7572 4.28999 37.3175 5.64287 37.3175 7.05354C37.3178 7.22445 37.3068 7.3952 37.2847 7.56467C37.1693 8.88388 36.5612 10.1112 35.5817 11.0023C34.6021 11.8934 33.3228 12.3829 31.9986 12.3733ZM31.9986 3.46521C31.0471 3.46636 30.1348 3.84487 29.462 4.51773C28.7891 5.19058 28.4106 6.10284 28.4094 7.0544C28.4097 7.15531 28.4161 7.2561 28.4285 7.35624C28.501 8.25049 28.9065 9.08495 29.5648 9.69454C30.2231 10.3041 31.0862 10.6444 31.9834 10.6481C32.8806 10.6518 33.7465 10.3186 34.4098 9.7145C35.0731 9.11036 35.4854 8.27927 35.5653 7.38565C35.5796 7.2758 35.5871 7.16517 35.5878 7.0544C35.5869 6.10269 35.2085 5.19021 34.5356 4.51717C33.8627 3.84413 32.9503 3.46549 31.9986 3.46435V3.46521Z" fill="#FF444F"/>
<path d="M31.9986 62.2785C30.5883 62.2771 29.2363 61.7163 28.2391 60.7191C27.2419 59.7219 26.6811 58.3698 26.6797 56.9595C26.6794 56.7886 26.6904 56.6179 26.7126 56.4484C26.8379 55.1304 27.451 53.9068 28.4316 53.0174C29.4123 52.1281 30.6898 51.6371 32.0137 51.6408C33.3376 51.6444 34.6124 52.1425 35.5881 53.0373C36.5638 53.9321 37.1701 55.1592 37.2881 56.4778C37.3083 56.6376 37.3181 56.7985 37.3175 56.9595C37.3161 58.3698 36.7553 59.7219 35.7581 60.7191C34.7609 61.7163 33.4088 62.2771 31.9986 62.2785ZM31.9986 53.3703C31.103 53.3646 30.2381 53.697 29.5769 54.3011C28.9157 54.9052 28.5068 55.7366 28.4319 56.6291C28.4176 56.7387 28.4101 56.849 28.4094 56.9595C28.4094 57.9114 28.7876 58.8244 29.4607 59.4975C30.1338 60.1706 31.0467 60.5487 31.9986 60.5487C32.9505 60.5487 33.8634 60.1706 34.5365 59.4975C35.2096 58.8244 35.5878 57.9114 35.5878 56.9595C35.5875 56.8589 35.5811 56.7584 35.5687 56.6586C35.4988 55.7609 35.0919 54.923 34.4297 54.313C33.7674 53.7031 32.8989 53.3663 31.9986 53.3703Z" fill="#FF444F"/>
<path d="M56.9497 37.3212C56.7762 37.3213 56.6028 37.3103 56.4308 37.2884C55.1183 37.1558 53.9021 36.5394 53.0192 35.5593C52.1362 34.5792 51.6497 33.3055 51.6543 31.9863C51.659 30.6672 52.1545 29.3969 53.0443 28.4231C53.9341 27.4492 55.1546 26.8414 56.4679 26.718C56.6277 26.6973 56.7886 26.6872 56.9497 26.6878C58.3603 26.6878 59.7132 27.2481 60.7107 28.2456C61.7081 29.2431 62.2685 30.596 62.2685 32.0067C62.2685 33.4173 61.7081 34.7702 60.7107 35.7677C59.7132 36.7652 58.3603 37.3255 56.9497 37.3255V37.3212ZM56.9497 28.4132C56.8519 28.4133 56.7543 28.4196 56.6573 28.4322C55.7619 28.5099 54.9278 28.9189 54.318 29.5792C53.7083 30.2395 53.3668 31.1036 53.3605 32.0023C53.3545 32.8979 53.6868 33.7627 54.2907 34.4239C54.8947 35.0852 55.726 35.4941 56.6184 35.569C56.7282 35.5836 56.8389 35.5911 56.9497 35.5915C57.9016 35.5915 58.8145 35.2134 59.4876 34.5403C60.1607 33.8672 60.5388 32.9542 60.5388 32.0023C60.5388 31.0504 60.1607 30.1375 59.4876 29.4644C58.8145 28.7913 57.9016 28.4132 56.9497 28.4132Z" fill="#FF444F"/>
<path d="M7.04743 37.3256C5.63677 37.3256 4.28388 36.7652 3.28639 35.7677C2.2889 34.7702 1.72852 33.4174 1.72852 32.0067C1.72852 30.5961 2.2889 29.2432 3.28639 28.2457C4.28388 27.2482 5.63677 26.6879 7.04743 26.6879C7.22095 26.6881 7.39427 26.6993 7.56635 26.7216C8.88331 26.8491 10.1052 27.4637 10.9928 28.445C11.8803 29.4263 12.3695 30.7035 12.3647 32.0266C12.3598 33.3497 11.8612 34.6233 10.9664 35.598C10.0717 36.5727 8.84529 37.1783 7.52743 37.2962C7.36825 37.3165 7.20791 37.3263 7.04743 37.3256ZM7.04743 28.4176C6.5761 28.4176 6.10937 28.5104 5.67391 28.6908C5.23845 28.8712 4.84278 29.1355 4.50949 29.4688C4.17621 29.8021 3.91183 30.1978 3.73146 30.6332C3.55108 31.0687 3.45825 31.5354 3.45825 32.0067C3.45825 32.4781 3.55108 32.9448 3.73146 33.3802C3.91183 33.8157 4.17621 34.2113 4.50949 34.5446C4.84278 34.8779 5.23845 35.1423 5.67391 35.3227C6.10937 35.503 6.5761 35.5959 7.04743 35.5959C7.14516 35.596 7.2428 35.59 7.33976 35.5777C8.23416 35.5064 9.06923 35.1021 9.67974 34.4446C10.2903 33.7871 10.6317 32.9244 10.6366 32.0272C10.6415 31.13 10.3095 30.2636 9.70616 29.5995C9.10285 28.9354 8.27225 28.5219 7.37868 28.4409C7.26888 28.4261 7.15823 28.4183 7.04743 28.4176Z" fill="#FF444F"/>
<path d="M31.9985 49.2981C28.5774 49.2981 25.2331 48.2836 22.3886 46.383C19.5441 44.4823 17.327 41.7809 16.0179 38.6202C14.7087 35.4595 14.3661 31.9816 15.0335 28.6263C15.701 25.2709 17.3484 22.1888 19.7674 19.7698C22.1865 17.3507 25.2686 15.7033 28.6239 15.0359C31.9793 14.3684 35.4572 14.711 38.6179 16.0202C41.7785 17.3294 44.48 19.5464 46.3807 22.3909C48.2813 25.2355 49.2958 28.5797 49.2958 32.0008C49.2905 36.5867 47.4664 40.9833 44.2237 44.226C40.981 47.4688 36.5844 49.2928 31.9985 49.2981ZM31.9985 16.4332C28.9195 16.4332 25.9097 17.3463 23.3496 19.0568C20.7895 20.7674 18.7942 23.1987 17.6159 26.0433C16.4376 28.8879 16.1294 32.0181 16.73 35.0379C17.3307 38.0577 18.8134 40.8316 20.9905 43.0087C23.1677 45.1859 25.9416 46.6686 28.9614 47.2692C31.9812 47.8699 35.1113 47.5616 37.9559 46.3834C40.8005 45.2051 43.2319 43.2098 44.9424 40.6497C46.653 38.0896 47.566 35.0798 47.566 32.0008C47.5612 27.8735 45.9195 23.9166 43.0011 20.9982C40.0827 18.0797 36.1258 16.438 31.9985 16.4332Z" fill="#FF444F"/>
<path d="M31.9986 49.2981C27.2262 49.2981 23.4883 41.7002 23.4883 32.0008C23.4883 22.3013 27.2262 14.7035 31.9986 14.7035C36.7709 14.7035 40.5088 22.3013 40.5088 32.0008C40.5088 41.7002 36.7709 49.2981 31.9986 49.2981ZM31.9986 16.4332C28.3229 16.4332 25.218 23.5623 25.218 32.0008C25.218 40.4393 28.3229 47.5684 31.9986 47.5684C35.6742 47.5684 38.7791 40.4393 38.7791 32.0008C38.7791 23.5623 35.6742 16.4332 31.9986 16.4332Z" fill="#FF444F"/>
<path d="M31.9997 49.2981C31.7703 49.2981 31.5503 49.207 31.3881 49.0448C31.2259 48.8826 31.1348 48.6626 31.1348 48.4332V15.5684C31.1348 15.339 31.2259 15.119 31.3881 14.9568C31.5503 14.7946 31.7703 14.7035 31.9997 14.7035C32.229 14.7035 32.449 14.7946 32.6112 14.9568C32.7734 15.119 32.8646 15.339 32.8646 15.5684V48.4332C32.8646 48.6626 32.7734 48.8826 32.6112 49.0448C32.449 49.207 32.229 49.2981 31.9997 49.2981Z" fill="#FF444F"/>
<path d="M48.4329 32.8707H15.568C15.3386 32.8707 15.1186 32.7795 14.9564 32.6173C14.7942 32.4551 14.7031 32.2352 14.7031 32.0058C14.7031 31.7764 14.7942 31.5564 14.9564 31.3942C15.1186 31.232 15.3386 31.1409 15.568 31.1409H48.4329C48.6622 31.1409 48.8822 31.232 49.0444 31.3942C49.2066 31.5564 49.2977 31.7764 49.2977 32.0058C49.2977 32.2352 49.2066 32.4551 49.0444 32.6173C48.8822 32.7795 48.6622 32.8707 48.4329 32.8707Z" fill="#FF444F"/>
<path d="M46.4879 25.0972H17.5211C17.2917 25.0972 17.0718 25.0061 16.9096 24.8439C16.7474 24.6817 16.6562 24.4618 16.6562 24.2324C16.6562 24.003 16.7474 23.783 16.9096 23.6209C17.0718 23.4587 17.2917 23.3676 17.5211 23.3676H46.4879C46.7173 23.3676 46.9373 23.4587 47.0995 23.6209C47.2617 23.783 47.3528 24.003 47.3528 24.2324C47.3528 24.4618 47.2617 24.6817 47.0995 24.8439C46.9373 25.0061 46.7173 25.0972 46.4879 25.0972Z" fill="#FF444F"/>
<path d="M46.4879 40.6439H17.5211C17.2917 40.6439 17.0718 40.5527 16.9096 40.3905C16.7474 40.2283 16.6562 40.0083 16.6562 39.779C16.6562 39.5496 16.7474 39.3296 16.9096 39.1674C17.0718 39.0052 17.2917 38.9141 17.5211 38.9141H46.4879C46.7173 38.9141 46.9373 39.0052 47.0995 39.1674C47.2617 39.3296 47.3528 39.5496 47.3528 39.779C47.3528 40.0083 47.2617 40.2283 47.0995 40.3905C46.9373 40.5527 46.7173 40.6439 46.4879 40.6439Z" fill="#FF444F"/>
</g>
<defs>
<clipPath id="clip0">
<rect width="64" height="64" fill="white"/>
</clipPath>
</defs>
</svg>

<svg xmlns="http://www.w3.org/2000/svg" width="64" height="64" fill="none"  xmlns:v="https://vecta.io/nano"><g clip-path="url(#A)" fill="#ff444f"><path d="M49.237 50.891c-.173 0-.342-.052-.485-.149s-.254-.235-.318-.396-.078-.337-.041-.506.125-.323.251-.442c.553-.519 1.117-1.115 1.679-1.763a.87.87 0 0 1 1.224-.087.87.87 0 0 1 .207.268c.051.102.081.213.089.326a.87.87 0 0 1-.042.336.86.86 0 0 1-.168.294l-1.8 1.888a.86.86 0 0 1-.596.231zm-12.809 6.522c-.217.001-.426-.08-.586-.226s-.26-.347-.279-.563a3.58 3.58 0 0 0-7.134 0 .87.87 0 0 1-.103.342c-.058.105-.137.198-.232.271s-.205.126-.322.154-.238.032-.357.011a25.84 25.84 0 0 1-13.662-7.155 25.82 25.82 0 0 1-7.15-13.664c-.021-.118-.017-.24.011-.357s.081-.227.154-.322.166-.174.271-.232.222-.093.342-.103c.892-.075 1.723-.485 2.326-1.146a3.56 3.56 0 0 0 .929-2.421 3.6 3.6 0 0 0-3.258-3.567.86.86 0 0 1-.342-.103c-.106-.058-.198-.137-.271-.232s-.126-.205-.154-.322-.032-.238-.011-.357A25.83 25.83 0 0 1 27.416 6.607c.118-.021.24-.017.357.011s.226.081.322.154a.85.85 0 0 1 .232.271.87.87 0 0 1 .103.342 3.58 3.58 0 0 0 7.134 0 .86.86 0 0 1 .103-.342c.058-.106.137-.198.232-.271s.205-.126.322-.154.238-.032.357-.011a25.83 25.83 0 0 1 20.819 20.816c.021.118.017.24-.011.357s-.081.227-.154.322-.166.174-.271.232-.222.093-.342.103a3.6 3.6 0 0 0-3.255 3.567c-.006.896.326 1.76.93 2.422a3.55 3.55 0 0 0 2.328 1.145.86.86 0 0 1 .342.103c.106.058.198.137.271.232s.126.205.154.322a.87.87 0 0 1 .011.356c-.425 2.373-1.182 4.675-2.249 6.838a.87.87 0 0 1-.498.439c-.218.075-.456.059-.662-.042a.87.87 0 0 1-.439-.498c-.075-.218-.059-.456.042-.662a23.99 23.99 0 0 0 1.928-5.535c-1.12-.311-2.107-.98-2.81-1.905S51.626 33.162 51.626 32s.381-2.292 1.084-3.217 1.69-1.594 2.81-1.905A24.11 24.11 0 0 0 37.122 8.476c-.311 1.12-.98 2.107-1.905 2.81A5.32 5.32 0 0 1 32 12.371c-1.162 0-2.292-.381-3.217-1.084s-1.594-1.69-1.905-2.81A24.11 24.11 0 0 0 8.475 26.881c1.12.311 2.107.98 2.81 1.905s1.084 2.055 1.084 3.217-.381 2.292-1.084 3.217-1.69 1.594-2.81 1.905A24.11 24.11 0 0 0 26.879 55.53a5.32 5.32 0 0 1 5.123-3.896c1.162 0 2.293.381 3.218 1.085a5.32 5.32 0 0 1 1.905 2.811 23.59 23.59 0 0 0 6.781-2.595c.099-.06.208-.099.322-.115s.23-.01.342.019.216.08.308.15.168.158.225.258.094.211.108.325.005.23-.027.341a.87.87 0 0 1-.157.304c-.072.09-.162.164-.263.219a25.32 25.32 0 0 1-8.183 2.964.89.89 0 0 1-.152.012z"/><path d="M31.999 12.373c-1.329.008-2.612-.486-3.592-1.382a5.28 5.28 0 0 1-1.698-3.455 3.76 3.76 0 0 1-.029-.483 5.32 5.32 0 0 1 5.319-5.319 5.32 5.32 0 0 1 5.319 5.319 3.9 3.9 0 0 1-.033.511 5.27 5.27 0 0 1-5.286 4.809zm0-8.908c-.951.001-1.864.38-2.537 1.053s-1.051 1.585-1.053 2.537c0 .101.007.202.019.302a3.58 3.58 0 0 0 7.137.03 2.7 2.7 0 0 0 .023-.331 3.59 3.59 0 0 0-1.052-2.537c-.673-.673-1.585-1.052-2.537-1.053v.001zm0 58.814a5.32 5.32 0 0 1-5.318-5.319 3.96 3.96 0 0 1 .033-.511 5.31 5.31 0 0 1 10.575.029 3.73 3.73 0 0 1 .029.482c-.001 1.41-.562 2.762-1.559 3.76A5.32 5.32 0 0 1 32 62.279zm0-8.908c-.896-.006-1.761.327-2.422.931a3.56 3.56 0 0 0-1.145 2.328c-.014.11-.022.22-.022.33a3.59 3.59 0 0 0 3.589 3.589 3.59 3.59 0 0 0 3.589-3.589 2.5 2.5 0 0 0-.019-.301c-.07-.898-.477-1.736-1.139-2.346s-1.531-.947-2.431-.943zm24.951-16.05a4.09 4.09 0 0 1-.519-.033 5.31 5.31 0 0 1 .038-10.57c.16-.021.321-.031.482-.03a5.32 5.32 0 0 1 5.319 5.319 5.32 5.32 0 0 1-5.319 5.319v-.004zm0-8.908a2.19 2.19 0 0 0-.292.019 3.61 3.61 0 0 0-3.297 3.57c-.006.896.326 1.76.93 2.422a3.55 3.55 0 0 0 2.328 1.145 2.63 2.63 0 0 0 .331.023 3.59 3.59 0 0 0 3.589-3.589 3.59 3.59 0 0 0-3.589-3.589zM7.047 37.326a5.32 5.32 0 0 1-5.319-5.319 5.32 5.32 0 0 1 5.319-5.319 3.91 3.91 0 0 1 .519.034 5.31 5.31 0 0 1-.039 10.575 3.67 3.67 0 0 1-.48.029zm0-8.908a3.59 3.59 0 0 0-3.589 3.589 3.59 3.59 0 0 0 3.589 3.589 2.37 2.37 0 0 0 .292-.018 3.58 3.58 0 0 0 .039-7.136c-.11-.015-.22-.023-.331-.023zm24.952 20.88A17.3 17.3 0 0 1 16.018 38.62c-1.309-3.161-1.652-6.639-.984-9.994a17.3 17.3 0 0 1 13.591-13.59c3.356-.668 6.833-.325 9.994.984a17.3 17.3 0 0 1 10.678 15.981c-.005 4.586-1.829 8.983-5.072 12.225A17.32 17.32 0 0 1 32 49.298zm0-32.865a15.57 15.57 0 0 0-11.008 26.575 15.57 15.57 0 0 0 16.965 3.375 15.56 15.56 0 0 0 6.986-5.734A15.57 15.57 0 0 0 47.566 32a15.59 15.59 0 0 0-4.565-11.003c-2.918-2.919-6.875-4.56-11.003-4.565z"/><path d="M31.999 49.298c-4.772 0-8.51-7.598-8.51-17.297s3.738-17.297 8.51-17.297 8.51 7.598 8.51 17.297-3.738 17.297-8.51 17.297zm0-32.865c-3.676 0-6.781 7.129-6.781 15.568s3.105 15.568 6.781 15.568 6.781-7.129 6.781-15.568-3.105-15.568-6.78-15.568z"/><path d="M32 49.298c-.229 0-.449-.091-.612-.253s-.253-.382-.253-.612V15.568c0-.229.091-.449.253-.612s.382-.253.612-.253.449.091.611.253.253.382.253.612v32.865c0 .229-.091.449-.253.612s-.382.253-.611.253z"/><path d="M48.433 32.871H15.568a.87.87 0 0 1-.612-.253.86.86 0 0 1-.253-.611.87.87 0 0 1 .253-.612.86.86 0 0 1 .612-.253h32.865a.87.87 0 0 1 .612.253.86.86 0 0 1 .253.612c0 .23-.091.449-.253.611s-.382.253-.612.253zm-1.945-7.774H17.521c-.229 0-.449-.091-.611-.253s-.253-.382-.253-.612.091-.449.253-.611.382-.253.611-.253h28.967a.87.87 0 0 1 .612.253.86.86 0 0 1 .253.611.87.87 0 0 1-.253.612.86.86 0 0 1-.612.253zm0 15.547H17.521c-.229 0-.449-.091-.611-.253s-.253-.382-.253-.611a.87.87 0 0 1 .253-.612.86.86 0 0 1 .611-.253h28.967a.87.87 0 0 1 .612.253.86.86 0 0 1 .253.612c0 .23-.091.449-.253.611s-.382.253-.612.253z"/></g><defs><clipPath id="A"><path fill="#fff" d="M0 0h64v64H0z"/></clipPath></defs></svg>
